X: 126010
T: GOOD NIGHT AND JOY BE WI' YOU
%R: reel
B: James Kerr "Merry Melodies" v.1 p.26 s.0 #10
Z: 2017 John Chambers <jc:trillian.mit.edu>
N: The key should probably be D major, but the book has only the f sharp.
M: 2/4
L: 1/16
K: Dmix
|: (ufe) |\
vd2ud2vA3vd | uB2vB2 ub3ua |\
faba faba | f2e2e2 (fe) |\
d2d2A3d | B2B2 b3a |\
faba faba | f2d2d2 H:|
|: uf2 |\
efed B2(dB) | ABde f2(ed) |\
e3f gfga | b2e2e2 (ef) |\
gfga b2(ag) | fefg a2(gf) |\
e3g fedc | d2B2"_D.C."B2 :|

% %newpage
%%sep 1 1 500
%%sep 1 1 500
%%begintext align
%% Page 27 has two "series" of tunes numbered 1-4 and 1-3,
%% plus 3 unnumbered tunes.
%% All the tunes are jigs.
%% The unnumbered tunes have been numbered 1-3 in series 3,
%% to preserve the book's order.
%% Most of the tunes have the unexplained "Same figure"
%% comment at the upper right.
%% The 3 unnumbered tunes have "Country Dance" at the upper right.
%% None of this has any obvious meaning,
%% and the tunes have no obvious connection.
%% Many are published elsewhere as single tunes.
%% The intent may have been two sets of dances for a suite of quadrilles,
%% plus three isolated tunes for unspecified country dances.
%%endtext

%%sep 1 1 500
%%sep 1 1 500

